source/img/contacts-icon-mail-desktop.svg

<svg width="90" height="90" fill="none" xmlns="http://www.w3.org/2000/svg"><circle cx="45" cy="45" r="45" fill="#121936"/><path fill-rule="evenodd" clip-rule="evenodd" d="M60.2786 54.9327L51.6177 47l8.6609-7.9327-1.181-1.262-12.5977 11.5385-12.5976-11.5385-1.181 1.262L41.3822 47l-8.6609 7.9327 1.181 1.262 8.7593-8.0228 3.8383 3.5156 3.8384-3.5156 8.7593 8.0228 1.181-1.262zM31.1519 34.5c-1.6181 0-2.9297 1.3977-2.9297 3.1157v18.7686c0 1.7207 1.301 3.1157 2.9297 3.1157H61.848c1.6181 0 2.9297-1.3977 2.9297-3.1157V37.6157c0-1.7207-1.301-3.1157-2.9297-3.1157H31.1519z" fill="#FFD74B"/></svg>

<svg width="90" height="90" viewBox="0 0 90 90" fill="none" xmlns="http://www.w3.org/2000/svg">
<circle cx="45" cy="45" r="45" fill="#121936"/>
<path fill-rule="evenodd" clip-rule="evenodd" d="M60.2786 54.9327L51.6177 47L60.2786 39.0673L59.0976 37.8053L46.4999 49.3438L33.9023 37.8053L32.7213 39.0673L41.3822 47L32.7213 54.9327L33.9023 56.1947L42.6616 48.1719L46.4999 51.6875L50.3383 48.1719L59.0976 56.1947L60.2786 54.9327ZM31.1519 34.5C29.5338 34.5 28.2222 35.8977 28.2222 37.6157V56.3843C28.2222 58.105 29.5232 59.5 31.1519 59.5H61.848C63.4661 59.5 64.7777 58.1023 64.7777 56.3843V37.6157C64.7777 35.895 63.4767 34.5 61.848 34.5H31.1519Z" fill="#FFD74B"/>
</svg>
